src/pos-icons/frequently-asked-questions.svg

<svg height="24" viewBox="0 0 24 24" width="24" xmlns="http://www.w3.org/2000/svg"><path d="m18 15h-12l-4 4v-16a1 1 0 0 1 1-1h15a1 1 0 0 1 1 1v11a1 1 0 0 1 -1 1m5-6v14l-4-4h-11a1 1 0 0 1 -1-1v-1h14v-9h1a1 1 0 0 1 1 1m-14.81-5c-.87 0-1.57.2-2.11.59-.52.41-.78.98-.77 1.77l.01.03h1.93c.01-.3.1-.53.28-.69.18-.15.4-.23.66-.23.31 0 .57.1.75.28.18.19.26.45.26.75 0 .32-.07.59-.23.82-.14.23-.35.43-.61.59-.51.34-.86.64-1.05.91-.2.26-.31.68-.31 1.18h2c0-.31.04-.56.13-.74s.26-.36.51-.52c.45-.24.82-.53 1.11-.93s.44-.81.44-1.31c0-.76-.27-1.37-.81-1.82-.53-.45-1.26-.68-2.19-.68m-1.19 7v2h2v-2zm6 2h2v-2h-2zm0-9v6h2v-6z"/></svg>

<?xml version="1.0" encoding="UTF-8"?><!DOCTYPE svg PUBLIC "-//W3C//DTD SVG 1.1//EN" "http://www.w3.org/Graphics/SVG/1.1/DTD/svg11.dtd"><svg xmlns="http://www.w3.org/2000/svg" xmlns:xlink="http://www.w3.org/1999/xlink" version="1.1" id="mdi-frequently-asked-questions" width="24" height="24" viewBox="0 0 24 24"><path d="M18,15H6L2,19V3A1,1 0 0,1 3,2H18A1,1 0 0,1 19,3V14A1,1 0 0,1 18,15M23,9V23L19,19H8A1,1 0 0,1 7,18V17H21V8H22A1,1 0 0,1 23,9M8.19,4C7.32,4 6.62,4.2 6.08,4.59C5.56,5 5.3,5.57 5.31,6.36L5.32,6.39H7.25C7.26,6.09 7.35,5.86 7.53,5.7C7.71,5.55 7.93,5.47 8.19,5.47C8.5,5.47 8.76,5.57 8.94,5.75C9.12,5.94 9.2,6.2 9.2,6.5C9.2,6.82 9.13,7.09 8.97,7.32C8.83,7.55 8.62,7.75 8.36,7.91C7.85,8.25 7.5,8.55 7.31,8.82C7.11,9.08 7,9.5 7,10H9C9,9.69 9.04,9.44 9.13,9.26C9.22,9.08 9.39,8.9 9.64,8.74C10.09,8.5 10.46,8.21 10.75,7.81C11.04,7.41 11.19,7 11.19,6.5C11.19,5.74 10.92,5.13 10.38,4.68C9.85,4.23 9.12,4 8.19,4M7,11V13H9V11H7M13,13H15V11H13V13M13,4V10H15V4H13Z" /></svg>
